images/448033.svg

<?xml version="1.0" encoding="UTF-8"?>
<svg xmlns="http://www.w3.org/2000/svg" xmlns:xlink="http://www.w3.org/1999/xlink" width="300pt" height="300pt" viewBox="0 0 300 300" version="1.1">
<defs>
<g>
<symbol overflow="visible" id="glyph0-0">
<path style="stroke:none;" d="M 0.59375 2.125 L 0.59375 -8.46875 L 6.59375 -8.46875 L 6.59375 2.125 Z M 1.265625 1.453125 L 5.9375 1.453125 L 5.9375 -7.78125 L 1.265625 -7.78125 Z M 1.265625 1.453125 "/>
</symbol>
<symbol overflow="visible" id="glyph0-1">
<path style="stroke:none;" d="M 4.734375 -7.953125 C 3.867188 -7.953125 3.179688 -7.628906 2.671875 -6.984375 C 2.171875 -6.347656 1.921875 -5.472656 1.921875 -4.359375 C 1.921875 -3.265625 2.171875 -2.394531 2.671875 -1.75 C 3.179688 -1.113281 3.867188 -0.796875 4.734375 -0.796875 C 5.585938 -0.796875 6.265625 -1.113281 6.765625 -1.75 C 7.273438 -2.394531 7.53125 -3.265625 7.53125 -4.359375 C 7.53125 -5.472656 7.273438 -6.347656 6.765625 -6.984375 C 6.265625 -7.628906 5.585938 -7.953125 4.734375 -7.953125 Z M 4.734375 -8.90625 C 5.953125 -8.90625 6.925781 -8.492188 7.65625 -7.671875 C 8.394531 -6.847656 8.765625 -5.742188 8.765625 -4.359375 C 8.765625 -2.984375 8.394531 -1.882812 7.65625 -1.0625 C 6.925781 -0.238281 5.953125 0.171875 4.734375 0.171875 C 3.503906 0.171875 2.519531 -0.238281 1.78125 -1.0625 C 1.039062 -1.882812 0.671875 -2.984375 0.671875 -4.359375 C 0.671875 -5.742188 1.039062 -6.847656 1.78125 -7.671875 C 2.519531 -8.492188 3.503906 -8.90625 4.734375 -8.90625 Z M 4.734375 -8.90625 "/>
</symbol>
<symbol overflow="visible" id="glyph0-2">
<path style="stroke:none;" d="M 1.171875 -8.75 L 2.765625 -8.75 L 6.65625 -1.4375 L 6.65625 -8.75 L 7.796875 -8.75 L 7.796875 0 L 6.203125 0 L 2.328125 -7.3125 L 2.328125 0 L 1.171875 0 Z M 1.171875 -8.75 "/>
</symbol>
<symbol overflow="visible" id="glyph0-3">
<path style="stroke:none;" d="M 1.171875 -8.75 L 2.359375 -8.75 L 2.359375 -5.15625 L 6.65625 -5.15625 L 6.65625 -8.75 L 7.84375 -8.75 L 7.84375 0 L 6.65625 0 L 6.65625 -4.171875 L 2.359375 -4.171875 L 2.359375 0 L 1.171875 0 Z M 1.171875 -8.75 "/>
</symbol>
</g>
</defs>
<g id="surface38505">
<rect x="0" y="0" width="300" height="300" style="fill:rgb(100%,100%,100%);fill-opacity:1;stroke:none;"/>
<path style="fill:none;stroke-width:1.2;stroke-linecap:butt;stroke-linejoin:miter;stroke:rgb(0%,0%,0%);stroke-opacity:1;stroke-miterlimit:10;" d="M 35.25 123.519531 L 53.097656 147.847656 "/>
<path style="fill:none;stroke-width:1.2;stroke-linecap:butt;stroke-linejoin:miter;stroke:rgb(0%,0%,0%);stroke-opacity:1;stroke-miterlimit:10;" d="M 53.097656 147.847656 L 83.085938 144.558594 "/>
<path style="fill:none;stroke-width:1.2;stroke-linecap:butt;stroke-linejoin:miter;stroke:rgb(0%,0%,0%);stroke-opacity:1;stroke-miterlimit:10;" d="M 83.085938 144.558594 L 100.933594 168.886719 "/>
<path style="fill:none;stroke-width:1;stroke-linecap:butt;stroke-linejoin:miter;stroke:rgb(0%,0%,0%);stroke-opacity:1;stroke-miterlimit:10;" d="M 130.925781 165.59375 L 130.925781 165.59375 M 127.933594 165.398438 L 128.046875 166.433594 M 124.9375 165.203125 L 125.164062 167.277344 M 121.945312 165.007812 L 122.285156 168.117188 M 118.949219 164.8125 L 119.40625 168.957031 M 115.957031 164.613281 L 116.527344 169.796875 M 112.964844 164.417969 L 113.644531 170.636719 M 109.96875 164.222656 L 110.765625 171.476562 M 106.976562 164.027344 L 107.886719 172.320312 M 103.984375 163.832031 L 105.007812 173.160156 M 100.988281 163.636719 L 102.125 174 M 100.351562 163.59375 L 101.515625 174.179688 "/>
<path style="fill:none;stroke-width:1.2;stroke-linecap:butt;stroke-linejoin:miter;stroke:rgb(0%,0%,0%);stroke-opacity:1;stroke-miterlimit:10;" d="M 130.925781 165.59375 L 151.214844 187.925781 "/>
<path style="fill:none;stroke-width:1.2;stroke-linecap:butt;stroke-linejoin:miter;stroke:rgb(0%,0%,0%);stroke-opacity:1;stroke-miterlimit:10;" d="M 145.890625 139.398438 L 130.925781 165.59375 "/>
<path style="fill:none;stroke-width:1.2;stroke-linecap:butt;stroke-linejoin:miter;stroke:rgb(0%,0%,0%);stroke-opacity:1;stroke-miterlimit:10;" d="M 147.742188 187.203125 L 144.671875 201.972656 "/>
<path style="fill:none;stroke-width:1.2;stroke-linecap:butt;stroke-linejoin:miter;stroke:rgb(100%,0%,0%);stroke-opacity:1;stroke-miterlimit:10;" d="M 144.671875 201.972656 L 141.601562 216.742188 "/>
<path style="fill:none;stroke-width:1.2;stroke-linecap:butt;stroke-linejoin:miter;stroke:rgb(0%,0%,0%);stroke-opacity:1;stroke-miterlimit:10;" d="M 154.691406 188.644531 L 151.625 203.417969 "/>
<path style="fill:none;stroke-width:1.2;stroke-linecap:butt;stroke-linejoin:miter;stroke:rgb(100%,0%,0%);stroke-opacity:1;stroke-miterlimit:10;" d="M 151.625 203.417969 L 148.554688 218.1875 "/>
<path style="fill:none;stroke-width:1.2;stroke-linecap:butt;stroke-linejoin:miter;stroke:rgb(0%,0%,0%);stroke-opacity:1;stroke-miterlimit:10;" d="M 151.214844 187.925781 L 164.96875 181.726562 "/>
<path style="fill:none;stroke-width:1.2;stroke-linecap:butt;stroke-linejoin:miter;stroke:rgb(0%,0%,100%);stroke-opacity:1;stroke-miterlimit:10;" d="M 164.96875 181.726562 L 178.722656 175.527344 "/>
<path style=" stroke:none;fill-rule:nonzero;fill:rgb(100%,100%,100%);fill-opacity:1;" d="M 140.078125 210.464844 L 150.078125 210.464844 L 150.078125 224.464844 L 140.078125 224.464844 Z M 140.078125 210.464844 "/>
<g style="fill:rgb(100%,0%,0%);fill-opacity:1;">
  <use xlink:href="#glyph0-1" x="140.078125" y="221.603516"/>
</g>
<path style="fill:none;stroke-width:1.2;stroke-linecap:butt;stroke-linejoin:miter;stroke:rgb(0%,0%,100%);stroke-opacity:1;stroke-miterlimit:10;" d="M 178.722656 175.527344 L 175.433594 145.535156 "/>
<path style="fill:none;stroke-width:1.2;stroke-linecap:butt;stroke-linejoin:miter;stroke:rgb(0%,0%,100%);stroke-opacity:1;stroke-miterlimit:10;" d="M 178.722656 175.527344 L 191.824219 183.007812 "/>
<path style="fill:none;stroke-width:1.2;stroke-linecap:butt;stroke-linejoin:miter;stroke:rgb(0%,0%,0%);stroke-opacity:1;stroke-miterlimit:10;" d="M 191.824219 183.007812 L 204.921875 190.492188 "/>
<path style=" stroke:none;fill-rule:nonzero;fill:rgb(100%,100%,100%);fill-opacity:1;" d="M 174.722656 168.527344 L 183.722656 168.527344 L 183.722656 182.527344 L 174.722656 182.527344 Z M 174.722656 168.527344 "/>
<g style="fill:rgb(0%,0%,100%);fill-opacity:1;">
  <use xlink:href="#glyph0-2" x="174.722656" y="179.666016"/>
</g>
<path style="fill:none;stroke-width:1.2;stroke-linecap:butt;stroke-linejoin:miter;stroke:rgb(0%,0%,100%);stroke-opacity:1;stroke-miterlimit:10;" d="M 175.433594 145.535156 L 160.660156 142.464844 "/>
<path style="fill:none;stroke-width:1.2;stroke-linecap:butt;stroke-linejoin:miter;stroke:rgb(0%,0%,0%);stroke-opacity:1;stroke-miterlimit:10;" d="M 160.660156 142.464844 L 145.890625 139.398438 "/>
<path style="fill:none;stroke-width:1.2;stroke-linecap:butt;stroke-linejoin:miter;stroke:rgb(0%,0%,100%);stroke-opacity:1;stroke-miterlimit:10;" d="M 175.433594 145.535156 L 186.597656 135.390625 "/>
<path style="fill:none;stroke-width:1.2;stroke-linecap:butt;stroke-linejoin:miter;stroke:rgb(0%,0%,0%);stroke-opacity:1;stroke-miterlimit:10;" d="M 186.597656 135.390625 L 197.761719 125.242188 "/>
<path style=" stroke:none;fill-rule:nonzero;fill:rgb(100%,100%,100%);fill-opacity:1;" d="M 171.433594 138.535156 L 180.433594 138.535156 L 180.433594 152.535156 L 171.433594 152.535156 Z M 171.433594 138.535156 "/>
<g style="fill:rgb(0%,0%,100%);fill-opacity:1;">
  <use xlink:href="#glyph0-2" x="171.433594" y="149.673828"/>
</g>
<path style="fill:none;stroke-width:1.2;stroke-linecap:butt;stroke-linejoin:miter;stroke:rgb(0%,0%,0%);stroke-opacity:1;stroke-miterlimit:10;" d="M 149.128906 137.9375 L 142.929688 124.183594 "/>
<path style="fill:none;stroke-width:1.2;stroke-linecap:butt;stroke-linejoin:miter;stroke:rgb(100%,0%,0%);stroke-opacity:1;stroke-miterlimit:10;" d="M 142.929688 124.183594 L 136.730469 110.429688 "/>
<path style="fill:none;stroke-width:1.2;stroke-linecap:butt;stroke-linejoin:miter;stroke:rgb(0%,0%,0%);stroke-opacity:1;stroke-miterlimit:10;" d="M 142.65625 140.855469 L 136.457031 127.101562 "/>
<path style="fill:none;stroke-width:1.2;stroke-linecap:butt;stroke-linejoin:miter;stroke:rgb(100%,0%,0%);stroke-opacity:1;stroke-miterlimit:10;" d="M 136.457031 127.101562 L 130.257812 113.347656 "/>
<path style=" stroke:none;fill-rule:nonzero;fill:rgb(100%,100%,100%);fill-opacity:1;" d="M 123.492188 104.890625 L 133.492188 104.890625 L 133.492188 118.890625 L 123.492188 118.890625 Z M 123.492188 104.890625 "/>
<g style="fill:rgb(100%,0%,0%);fill-opacity:1;">
  <use xlink:href="#glyph0-1" x="123.492188" y="116.029297"/>
</g>
<path style="fill:none;stroke-width:1.2;stroke-linecap:butt;stroke-linejoin:miter;stroke:rgb(0%,0%,0%);stroke-opacity:1;stroke-miterlimit:10;" d="M 197.761719 125.242188 L 226.5 134.4375 "/>
<path style="fill:none;stroke-width:1.2;stroke-linecap:butt;stroke-linejoin:miter;stroke:rgb(0%,0%,0%);stroke-opacity:1;stroke-miterlimit:10;" d="M 202.796875 119.402344 L 225.789062 126.753906 "/>
<path style="fill:none;stroke-width:1.2;stroke-linecap:butt;stroke-linejoin:miter;stroke:rgb(0%,0%,0%);stroke-opacity:1;stroke-miterlimit:10;" d="M 191.355469 95.761719 L 197.761719 125.242188 "/>
<path style="fill:none;stroke-width:1.2;stroke-linecap:butt;stroke-linejoin:miter;stroke:rgb(0%,0%,0%);stroke-opacity:1;stroke-miterlimit:10;" d="M 226.5 134.4375 L 248.828125 114.144531 "/>
<path style="fill:none;stroke-width:1.2;stroke-linecap:butt;stroke-linejoin:miter;stroke:rgb(0%,0%,0%);stroke-opacity:1;stroke-miterlimit:10;" d="M 248.828125 114.144531 L 242.421875 84.660156 "/>
<path style="fill:none;stroke-width:1.2;stroke-linecap:butt;stroke-linejoin:miter;stroke:rgb(0%,0%,0%);stroke-opacity:1;stroke-miterlimit:10;" d="M 241.25 112.703125 L 236.125 89.117188 "/>
<path style="fill:none;stroke-width:1.2;stroke-linecap:butt;stroke-linejoin:miter;stroke:rgb(0%,0%,0%);stroke-opacity:1;stroke-miterlimit:10;" d="M 242.421875 84.660156 L 213.683594 75.46875 "/>
<path style="fill:none;stroke-width:1.2;stroke-linecap:butt;stroke-linejoin:miter;stroke:rgb(0%,0%,0%);stroke-opacity:1;stroke-miterlimit:10;" d="M 242.421875 84.660156 L 253.585938 74.515625 "/>
<path style="fill:none;stroke-width:1.2;stroke-linecap:butt;stroke-linejoin:miter;stroke:rgb(100%,0%,0%);stroke-opacity:1;stroke-miterlimit:10;" d="M 253.585938 74.515625 L 264.75 64.371094 "/>
<path style="fill:none;stroke-width:1.2;stroke-linecap:butt;stroke-linejoin:miter;stroke:rgb(0%,0%,0%);stroke-opacity:1;stroke-miterlimit:10;" d="M 213.683594 75.46875 L 191.355469 95.761719 "/>
<path style="fill:none;stroke-width:1.2;stroke-linecap:butt;stroke-linejoin:miter;stroke:rgb(0%,0%,0%);stroke-opacity:1;stroke-miterlimit:10;" d="M 216.226562 82.75 L 198.359375 98.984375 "/>
<path style=" stroke:none;fill-rule:nonzero;fill:rgb(100%,100%,100%);fill-opacity:1;" d="M 255.75 57.371094 L 274.75 57.371094 L 274.75 71.371094 L 255.75 71.371094 Z M 255.75 57.371094 "/>
<g style="fill:rgb(100%,0%,0%);fill-opacity:1;">
  <use xlink:href="#glyph0-1" x="255.75" y="68.509766"/>
  <use xlink:href="#glyph0-3" x="265.195312" y="68.509766"/>
</g>
<path style="fill:none;stroke-width:1.2;stroke-linecap:butt;stroke-linejoin:miter;stroke:rgb(0%,0%,0%);stroke-opacity:1;stroke-miterlimit:10;" d="M 204.921875 190.492188 L 205.058594 220.664062 "/>
<path style="fill:none;stroke-width:1.2;stroke-linecap:butt;stroke-linejoin:miter;stroke:rgb(0%,0%,0%);stroke-opacity:1;stroke-miterlimit:10;" d="M 212.035156 193.476562 L 212.144531 217.613281 "/>
<path style="fill:none;stroke-width:1.2;stroke-linecap:butt;stroke-linejoin:miter;stroke:rgb(0%,0%,0%);stroke-opacity:1;stroke-miterlimit:10;" d="M 230.980469 175.289062 L 204.921875 190.492188 "/>
<path style="fill:none;stroke-width:1.2;stroke-linecap:butt;stroke-linejoin:miter;stroke:rgb(0%,0%,0%);stroke-opacity:1;stroke-miterlimit:10;" d="M 205.058594 220.664062 L 231.257812 235.628906 "/>
<path style="fill:none;stroke-width:1.2;stroke-linecap:butt;stroke-linejoin:miter;stroke:rgb(0%,0%,0%);stroke-opacity:1;stroke-miterlimit:10;" d="M 231.257812 235.628906 L 257.316406 220.425781 "/>
<path style="fill:none;stroke-width:1.2;stroke-linecap:butt;stroke-linejoin:miter;stroke:rgb(0%,0%,0%);stroke-opacity:1;stroke-miterlimit:10;" d="M 230.285156 227.976562 L 251.132812 215.8125 "/>
<path style="fill:none;stroke-width:1.2;stroke-linecap:butt;stroke-linejoin:miter;stroke:rgb(0%,0%,0%);stroke-opacity:1;stroke-miterlimit:10;" d="M 257.316406 220.425781 L 257.179688 190.253906 "/>
<path style="fill:none;stroke-width:1.2;stroke-linecap:butt;stroke-linejoin:miter;stroke:rgb(0%,0%,0%);stroke-opacity:1;stroke-miterlimit:10;" d="M 257.179688 190.253906 L 230.980469 175.289062 "/>
<path style="fill:none;stroke-width:1.2;stroke-linecap:butt;stroke-linejoin:miter;stroke:rgb(0%,0%,0%);stroke-opacity:1;stroke-miterlimit:10;" d="M 251.039062 194.921875 L 230.082031 182.949219 "/>
</g>
</svg>

<svg xmlns="http://www.w3.org/2000/svg" xmlns:xlink="http://www.w3.org/1999/xlink" width="300pt" height="300pt" viewBox="0 0 300 300"><defs><symbol overflow="visible"><path d="M.594 2.125V-8.47h6V2.126zm.672-.672h4.671V-7.78h-4.67zm0 0"/></symbol><symbol overflow="visible" id="a"><path d="M4.734-7.953c-.867 0-1.554.324-2.062.97-.5.635-.75 1.51-.75 2.624 0 1.094.25 1.965.75 2.61.508.637 1.195.953 2.062.953.852 0 1.532-.316 2.032-.953.507-.645.765-1.516.765-2.61 0-1.113-.257-1.988-.764-2.624-.5-.645-1.18-.97-2.032-.97zm0-.953c1.22 0 2.192.414 2.922 1.234.74.824 1.11 1.93 1.11 3.313 0 1.376-.37 2.477-1.11 3.298C6.926-.24 5.953.17 4.734.17c-1.23 0-2.214-.41-2.953-1.234C1.04-1.882.673-2.984.673-4.36c0-1.382.367-2.488 1.11-3.312.738-.82 1.722-1.234 2.952-1.234zm0 0"/></symbol><symbol overflow="visible" id="b"><path d="M1.172-8.75h1.594l3.89 7.313V-8.75h1.14V0H6.204L2.328-7.313V0H1.172zm0 0"/></symbol><symbol overflow="visible" id="c"><path d="M1.172-8.75H2.36v3.594h4.296V-8.75h1.188V0H6.656v-4.172H2.36V0H1.17zm0 0"/></symbol></defs><g><path fill="#fff" d="M0 0h300v300H0z"/><path d="M35.25 123.52l17.848 24.328M53.098 147.848l29.988-3.29M83.086 144.56l17.848 24.327" stroke-width="1.2" stroke="#000" stroke-miterlimit="10" fill="none"/><path d="M130.926 165.594m-2.992-.196l.113 1.036m-3.11-1.23l.227 2.073m-3.22-2.27l.34 3.11m-3.335-3.304l.456 4.144m-3.45-4.344l.57 5.184m-3.56-5.38l.68 6.22m-3.677-6.414l.796 7.254m-3.79-7.45l.91 8.293m-3.902-8.488l1.024 9.328m-4.02-9.523L102.125 174m-1.773-10.406l1.164 10.586" stroke="#000" stroke-miterlimit="10" fill="none"/><path d="M130.926 165.594l20.29 22.332M145.89 139.398l-14.964 26.196M147.742 187.203l-3.07 14.77" stroke-width="1.2" stroke="#000" stroke-miterlimit="10" fill="none"/><path d="M144.672 201.973l-3.07 14.77" stroke-width="1.2" stroke="#f00" stroke-miterlimit="10" fill="none"/><path d="M154.69 188.645l-3.065 14.773" stroke-width="1.2" stroke="#000" stroke-miterlimit="10" fill="none"/><path d="M151.625 203.418l-3.07 14.77" stroke-width="1.2" stroke="#f00" stroke-miterlimit="10" fill="none"/><path d="M151.215 187.926l13.754-6.2" stroke-width="1.2" stroke="#000" stroke-miterlimit="10" fill="none"/><path d="M164.97 181.727l13.753-6.2" stroke-width="1.2" stroke="#00f" stroke-miterlimit="10" fill="none"/><path d="M140.078 210.465h10v14h-10zm0 0" fill="#fff"/><use xlink:href="#a" x="140.078" y="221.604" fill="#f00"/><path d="M178.723 175.527l-3.29-29.992M178.723 175.527l13.1 7.48" stroke-width="1.2" stroke="#00f" stroke-miterlimit="10" fill="none"/><path d="M191.824 183.008l13.098 7.484" stroke-width="1.2" stroke="#000" stroke-miterlimit="10" fill="none"/><path d="M174.723 168.527h9v14h-9zm0 0" fill="#fff"/><use xlink:href="#b" x="174.723" y="179.666" fill="#00f"/><path d="M175.434 145.535l-14.774-3.07" stroke-width="1.2" stroke="#00f" stroke-miterlimit="10" fill="none"/><path d="M160.66 142.465l-14.77-3.067" stroke-width="1.2" stroke="#000" stroke-miterlimit="10" fill="none"/><path d="M175.434 145.535l11.164-10.144" stroke-width="1.2" stroke="#00f" stroke-miterlimit="10" fill="none"/><path d="M186.598 135.39l11.164-10.148" stroke-width="1.2" stroke="#000" stroke-miterlimit="10" fill="none"/><path d="M171.434 138.535h9v14h-9zm0 0" fill="#fff"/><use xlink:href="#b" x="171.434" y="149.674" fill="#00f"/><path d="M149.13 137.938l-6.2-13.754" stroke-width="1.2" stroke="#000" stroke-miterlimit="10" fill="none"/><path d="M142.93 124.184l-6.2-13.754" stroke-width="1.2" stroke="#f00" stroke-miterlimit="10" fill="none"/><path d="M142.656 140.855l-6.2-13.753" stroke-width="1.2" stroke="#000" stroke-miterlimit="10" fill="none"/><path d="M136.457 127.102l-6.2-13.754" stroke-width="1.2" stroke="#f00" stroke-miterlimit="10" fill="none"/><path d="M123.492 104.89h10v14h-10zm0 0" fill="#fff"/><use xlink:href="#a" x="123.492" y="116.029" fill="#f00"/><path d="M197.762 125.242l28.738 9.195M202.797 119.402l22.992 7.352M191.355 95.762l6.407 29.48M226.5 134.438l22.328-20.293M248.828 114.145l-6.406-29.485M241.25 112.703l-5.125-23.586M242.422 84.66l-28.738-9.19M242.422 84.66l11.164-10.144" stroke-width="1.2" stroke="#000" stroke-miterlimit="10" fill="none"/><path d="M253.586 74.516L264.75 64.37" stroke-width="1.2" stroke="#f00" stroke-miterlimit="10" fill="none"/><path d="M213.684 75.47l-22.33 20.292M216.227 82.75L198.36 98.984" stroke-width="1.2" stroke="#000" stroke-miterlimit="10" fill="none"/><path d="M255.75 57.37h19v14h-19zm0 0" fill="#fff"/><g fill="#f00"><use xlink:href="#a" x="255.75" y="68.51"/><use xlink:href="#c" x="265.195" y="68.51"/></g><path d="M204.922 190.492l.137 30.172M212.035 193.477l.11 24.136M230.98 175.29l-26.058 15.202M205.06 220.664l26.198 14.965M231.258 235.63l26.058-15.204M230.285 227.977l20.848-12.165M257.316 220.426l-.136-30.172M257.18 190.254l-26.2-14.965M251.04 194.922L230.08 182.95" stroke-width="1.2" stroke="#000" stroke-miterlimit="10" fill="none"/></g></svg>
